X:1
T:I Remember When My Burdens Rolled Away
T:Minnie A. Steele, 1908
T:I Remember When My Burdens Rolled Away
T:Public Domain
T:Public Domain
T:Public Domain
C:Minnie A. Steele, 1908
Z:Public Domain
%%score ( 1 2 ) ( 3 4 )
L:1/8
M:4/4
K:F
V:1 treble 
V:2 treble 
V:3 bass 
V:4 bass 
V:1
 CC | [CF][CF][CF][CF] [CF][CE][CD][CE] | [CF]6 [FA][GB] | [Ac][Ac][Ac][Ac] [Ac]2 [GB][FA] | %4
w: 1.~I re-|mem- ber when my bur- dens rolled a-|way; I had|car- ried them for years, night and|
w: 2.~I re-|mem- ber when my bur- dens rolled a-|way; That I|feared would ne- ver leave, night or|
w: 3.~I re-|mem- ber when my bur- dens rolled a-|way, That had|hin- dered me for years, night and|
w: 4.~I am|sing- ing since my bur- dens rolled a-|way; There’s a|song with- in my heart night and|
 [EG]6 [FA][FA] | [EB][EB][EB][FA] [EG]2 [Ec][Ec] | [FA][FA][FA][CG] [CF]2 [CF][CF] | %7
w: day. When I|sought the bless- èd Lord, And I|took Him at His word, Then at|
w: day. Je- sus|showed to me the loss, So I|left them at the cross; I was|
w: day. As I|sought the throne of grace, Just a|glimpse of Je- sus’ face, And I|
w: day. I am|liv- ing for my King, And with|joy I shout and sing: “Hal- lelu-|
 [DG]2 [DG][DG] [CE][CE] [CD]>[CE] | [CF]6 ||"^Refrain" [Ac]>[Bd] | [Ac]6 [FA]>[GB] | %11
w: once all my bur- dens rolled a-|way.|||
w: glad when my bur- dens rolled a-|way.|Rolled a-|way, rolled a-|
w: knew that my bur- dens could not|stay.|||
w: jah, all my bur- dens rolled a-|way!”|||
 [FA]6 [FA][FA] | [EG][EG][EG][EG] [Fd][Fd] [Fd]>[Fd] | (EFGA B2) [Ac]>[Bd] | [Ac]6 [FA]>[GB] | %15
w: ||||
w: way, I am|hap- py since my bur- dens rolled a-|way. * * * * Roled a-|rolled a- way,|
w: ||||
w: ||||
 [FA]6 CC | [CF][CF][Fc][GB] [FA][FA] [EA]>[EG] | [CF]6 |] %18
w: |||
w: I am hap-|py since my bur- dens rolled a- way.||
w: |||
w: |||
V:2
 x2 | x8 | x8 | x8 | x8 | x8 | x8 | x8 | x6 || x2 | x8 | x8 | x8 | c6 x2 | x8 | x8 | x8 | x6 |] %18
w: ||||||||||||||||||
w: |||||||||||||way,|||||
V:3
 [F,A,][F,A,] | [F,A,][F,A,][F,A,][F,A,] [G,B,][G,B,][C,B,][C,B,] | [F,A,]6 [F,C][F,C] | %3
w: ~ ~|~ ~ ~ ~ ~ ~ ~ ~|~ ~ ~|
 [F,C][F,C][F,C][F,C] [F,C]2 [E,C][F,C] | [C,C]6 [F,C][F,C] | %5
w: ~ ~ ~ ~ ~ ~ ~|~ ~ ~|
 [G,C][G,C][G,C][F,C] [C,C]2 [C,C][C,C] | [F,C][F,C][F,C][F,B,] [F,A,]2 [F,A,][F,A,] | %7
w: ~ ~ ~ ~ ~ ~ ~|~ ~ ~ ~ ~ ~ ~|
 [B,,B,]2 [B,,B,][B,,B,] [C,G,][C,G,] [C,B,]>[C,B,] | [F,A,]6 || z2 | z2 [F,C]>[F,C] [F,C]2 z2 | %11
w: ~ ~ ~ ~ ~ ~ ~|~||Rolled a- way,|
 z2 [F,C]>[F,C] [F,C]2 [F,C][F,C] | [G,C][G,C][G,C][G,C] [G,=B,][G,B,] [G,B,]>[G,B,] | %13
w: rolled a- way, ~ ~|~ ~ ~ ~ ~ ~ since my|
 G,A,_B,C C2 z2 | z2 [F,C]>[F,C] [F,C]2 z2 | z2 [F,C]>[F,C] [F,C]2 [F,A,][F,A,] | %16
w: bur- dens rolled a- way;|a- way, rolled|a- way, * * *|
 [F,A,][F,A,][F,A,][B,,D] [C,C][C,C] [C,C]>[C,B,] | [F,A,]6 |] %18
w: ||
V:4
 x2 | x8 | x8 | x8 | x8 | x8 | x8 | x8 | x6 || x2 | x8 | x8 | x8 | C,6 x2 | x8 | x8 | x8 | x6 |] %18
w: |||||||||||||Rolled|||||

